!!!!SEGMENT: pl-kk--kk-i-14--018_anonim--regina-caeli-laetare.krn
!!!cenid: 17xx:2206
!!!COM: Anonim
!!!COM-rismID:
!!!CDT:
!!!CNT:
!!!OTL: Regina caeli laetare
!!!PDT:
!!!AGN: Sacred
!!!SMS-siglum: PL-Kk
!!!SMS-shelfmark: Kk.I.14
!!!SMS-shelfwork: 018 W
!!!SMS-variant:
!!!SMS-altvar:
!!!NIFC-rismSourceID: 1001154412
!!!NIFC-islandoraID: pl-kk:2607
!!!URL-pdf-islandora: https://repozytorium.nifc.pl/islandora/object/pl-kk%3A2607/datastream/PDF/view
!!!URL-scan: https://polish.musicsources.pl/pl/lokalizacje/galeria/rekopisy/5768 @EN{Scan on Polish Music Herritage in Open Access Website} @PL{Skany w portalu Dziedzictwo Muzyki Polskiej w otwartym dostępie}
!!!ONB-nifc: UWAGA: tylko w księdze B, skan 0022.
!!!AIN: 1 empty
!!!key:
**kern	**text
*Iempty	*
*I"Baſſo.	*
*I'B	*
*clefF4	*
*k[]	*
*C:	*
*M2/1	*
*met(C|)	*
=1-	=1-
!LO:TX:t=P:problem=kreska pseudotaktowa	!
1r	.
2r	.
*2\right	*
!LO:TX:t=P:problem=kreska pseudotaktowa	!
2A\	Re-
=2-	=2-
1G	-gi-
!!LO:TX:t=P:problem:oddech jako rozdzielacz słów:global
2C,</	-na
1c\	Cae-
=3-	=3-
.	.
4B\	-li
!LO:TX:t=P:problem=kreska pseudotaktowa	!
4B\	lae-
4c\	-ta-
(4B\	.
4A\)	.
!LO:TX:t=P:problem=kreska pseudotaktowa	!
4G\	.
=4-	=4-
4F\	.
4E\	.
!LO:TX:t=P:problem=kreska pseudotaktowa	!
2D/	.
2C,</	-re
!LO:TX:t=P:problem=kreska pseudotaktowa	!
2C/	lae-
=5-	=5-
1G	-ta-
2C,</	-re
4c\	al-
!LO:TX:t=P:problem=kreska pseudotaktowa	!
4B\	.
=6-	=6-
4A\	-le-
4G\	.
!LO:TX:t=P:problem=kreska pseudotaktowa	!
2F\	.
!LO:LB:g=original	!
1G	-lu-
=7-	=7-
!LO:TX:t=P:problem=kreska pseudotaktowa	!
1A,<	-ia
*	*ij
2.G\	al-
4F\	.
=8-	=8-
2.E\	-le-
4F\	-lu-
!LO:TX:t=P:problem=kreska pseudotaktowa	!
1G	-ia
*	*Xij
=9-	=9-
2C,</	.
1c	Qui-
4c\	-a
4B\	.
=10-	=10-
*	*ij
1A	Qui-
2G,<\	-a
*	*Xij
!LO:TX:t=P:problem=kreska pseudotaktowa	!
2C/	quem
=11-	=11-
4F\	me-
4G\	.
4A\	-ru-
!LO:TX:t=P:problem=kreska pseudotaktowa	!
4B\	.
2c\	-i-
4C/	-sti
!LO:TX:t=P:problem=kreska pseudotaktowa	!
4C/	por-
=12-	=12-
4D\	-ta-
4E\	.
4F\	.
!LO:TX:t=P:problem=kreska pseudotaktowa	!
4G\	.
4A\	.
4G\	.
4A\	.
!LO:TX:t=P:problem=kreska pseudotaktowa	!
4E\	.
=13-	=13-
4F\	.
4D\	.
4G\	.
!LO:TX:t=P:problem=kreska pseudotaktowa	!
4F\	.
4E\	.
4D\	.
4E\	.
!LO:TX:t=P:problem=kreska pseudotaktowa	!
4C\	.
=14-	=14-
!LO:TX:t=P:problem=kreska pseudotaktowa	!
!LO:LB:g=original	!
1G	.
2C,</	-re
4c\	por-
!LO:TX:t=P:problem=kreska pseudotaktowa	!
4B\	.
=15-	=15-
4A\	-ta-
4G\	.
!LO:TX:t=P:problem=kreska pseudotaktowa	!
2F\	.
!LO:TX:t=P:problem=kreska pseudotaktowa	!
1G	.
=16-	=16-
2E,<\	-re
!LO:TX:t=P::problem=kreska pseudotaktowa&colon;między nutą a kropką	!
[<2A\	al-
!LO:N:xstem:cue	!
4A\]	.
4G\	.
4F\	.
!LO:TX:t=P:problem=kreska pseudotaktowa	!
4E\	.
=17-	=17-
2D\	.
4G\	.
!LO:TX:t=P:problem=kreska pseudotaktowa	!
4F\	.
4E\	.
4D\	.
4C\	.
!LO:TX:t=P:problem=kreska pseudotaktowa	!
4BB\	.
=18-	=18-
4AA/	.
4GG/	.
2FF/	.
*lig	*
1GG	-le-
=19-	=19-
1AA	-lu-
*Xlig	*
*lig	*
1GG	-ia
=20-	=20-
!LO:TX:t=P:problem=kreska pseudotaktowa	!
1C	.
*Xlig	*
0r	.
=21-	=21-
.	.
2r	.
4C/	Re-
!LO:TX:t=P:problem=kreska pseudotaktowa	!
4C/	-sur-
=22-	=22-
2.F\	-re-
!LO:TX:t=P:problem=kreska pseudotaktowa	!
4E\	-xit
!LO:LB:g=original	!
4D\	si-
4F\	-cut
4E\	di-
!LO:TX:t=P:problem=kreska pseudotaktowa	!
4D\	-xit
=23-	=23-
1C	.
2FF,</	.
4F\	re-
!LO:TX:t=P:problem=kreska pseudotaktowa	!
4F\	-sur-
=24-	=24-
2C/	-re-
2GG/	.
1D	.
=25-	=25-
2GG,</	-xit
4G\	si-
!LO:TX:t=P:problem=kreska pseudotaktowa	!
4F\	.
(2E\	-cut
2A,<\)	.
=26-	=26-
!LO:TX:t=P:problem=kreska pseudotaktowa	!
1G	di-
2C/	-xit
4c\	al-
!LO:TX:t=P:problem=kreska pseudotaktowa	!
4B\	.
=27-	=27-
4A\	.
4G\	.
!LO:TX:t=P:problem=kreska pseudotaktowa	!
2F\	-le-
1G	-lu-
=28-	=28-
!LO:TX:t=P:problem=kreska pseudotaktowa	!
1C,<	-ia
2r	.
*	*ij
2E\	al-
=29-	=29-
1A	-le-
1G	-lu-
=30-	=30-
0C	-ia
*	*Xij
=31-	=31-
!LO:LB:g=original	!
!LO:TX:t=P:problem=kreska pseudotaktowa	!
0r	.
=32-	=32-
2r	.
!LO:TX:t=P:problem=kreska pseudotaktowa	!
2G\	O-
2C/	-ra
1c\	pro
=33-	=33-
.	.
!LO:TX:t=P:problem=kreska pseudotaktowa	!
2B\	no-
2c,<\	-bis
!LO:TX:t=P:problem=kreska pseudotaktowa	!
2C/	(pro)
=34-	=34-
2G\	no-
!LO:TX:t=P:problem=kreska pseudotaktowa	!
2G\	-bis
!LO:TX:t=P:problem=kreska pseudotaktowa	!
1G	De-
=35-	=35-
!LO:TX:t=P:problem=kreska pseudotaktowa	!
1C,<	-um
0r	.
=36-	=36-
.	.
2r	.
!LO:TX:t=P:problem=kreska pseudotaktowa	!
2C/	al-
=37-	=37-
4F\	-le-
4G\	.
4A\	.
!LO:TX:t=P:problem=kreska pseudotaktowa	!
4B\	.
2c\	-lu-
!LO:TX:t=P:problem=kreska pseudotaktowa	!
2C/	-ia
=38-	=38-
4E\	al-
4F\	.
4G\	.
4E\	.
!LO:TX:t=P:problem=kreska pseudotaktowa	!
1A	.
=39-	=39-
2G\	-le-
2G\	-lu-
1G	-ia-
=40-	=40-
0C;	.
=-	=-
*-	*-
!!!RDF**kern: < = below
!!!RDF**kern: > = above
!!!ENC: Marta Chmielewska
!!!END: 2021-07-15
!!!ENC: Anastazja Marusiak
!!!END: 2021-07-01
